X: 1877
T: Arnish Light
R: reel
M: 4/4
K: Amixolydian
|:cee A2 Ac/c/c|d2c2 BGGB|cee A2 Ac/c/c|1 eAdc A3B:|2 eAdc A3e||
ae c2 fe c2|d2c2 BGGe|ae c2 fe c2|eAdc A3e|
ae c2 fe c2|d2c2 BGGB|cee A2 Ac/c/c|eAdc A3a||
|:e2d2 cAAa|e2c2 BGGa|e2c2 fe c2|1 eAdc A3a:|2 eAdc A3e||
a2 ef ceAc|fe c2 BGGe|a2 ef ceAd|cAce aecA|
ceae ceAc|e2c2 BGGf|ecce fe c2|eAdc A4||

